X: 1
T: Caol Muile (Gaelic waltz)
S: as played by Robbie Robertson, Youtube
Z: arr. T. Traub 12-10-2011
R: waltz
M: 3/4
K: D
L: 1/4
A/A/ |\
"D"A F A/-A/ | "D"A2 A/A/ | "G"B A F |\
"D"A2 A | "G"B A B | "Bm"d2 F/F/ | "Em"E3- | "A"E2 ||
D/E/ |\
"Bm"F F F | "Bm"F2 E | "G"D D B, | "G"D2 D/E/ |\
"D"F A F | "A"E2 F/E/ | "D"D3- | "D"D2 :|
